X:1
T:Cooley's Morning Dew
M:4/4
L:1/8
R:reel
C:Traditional, variation by Joe Cooley
S:Robin Flower
K:D
A|:B2EB GBEA |B2EB ADFA|B2EB GBEg|1 gedB ADFA:|2 gedB A3 A|
B2eg fdeA|B2eg fddA|B2Be (3fga fe|d2AG FDDA|
B2eg fdeA|B2eg fddc|dfaf fefd|cdAd BEE2||
